rospo-icon-theme-classic-common/16x16/apps/dirt-rally.svg

<svg height="16" width="16" xmlns="http://www.w3.org/2000/svg"><rect fill="#4f4f4f" height="16" rx=".8" transform="matrix(0 -1 -1 0 0 0)" width="16" x="-16" y="-16"/><path d="m4.4003906 2c-.2216 0-.4003906.1787906-.4003906.4003906v3.5996094 3.5996094c0 .2216.1787906.4003906.4003906.4003906h3.5996094a4 4 0 0 0 4-4 4 4 0 0 0 -4-4zm1.8007813 2h1.7988281a2 2 0 0 1 2 2 2 2 0 0 1 -2 2h-1.7988281c-.1108 0-.2011719-.0903719-.2011719-.2011719v-1.7988281-1.7988281c0-.1108.0903719-.2011719.2011719-.2011719z" fill="#fff"/><g fill="none" stroke="#f07400" stroke-linecap="round" stroke-width=".999791"><path d="m2.9964854 14.492949-.7447584-1.117138m-.7447588-.372379s1.4895172.172971 1.4895172-.744758c0-.917728-1.4895172-.744758-1.4895172-.744758m.0000365 2.979069v-2.979033"/><path d="m4.5104838 13.344555h1.4895162m-1.489479 1.117136v-2.234274m1.489479 2.234274v-2.234274m-1.4895162 0s0-.744759.7447581-.744759.7447581.744759.7447581.744759" stroke-linejoin="bevel"/><path d="m7.5104842 11.519934v2.979034h1.4895158" stroke-linejoin="round"/><path d="m10.510484 11.56795v2.979034h1.489516" stroke-linejoin="round"/><path d="m13.487836 14.489517v-1.489517m1.117137-1.489516-1.117137 1.489516m-1.117137-1.489516 1.117137 1.489516"/></g></svg>

<svg xmlns="http://www.w3.org/2000/svg" width="16" height="16" version="1">
 <rect style="fill:#4f4f4f" width="16" height="16" x="-16" y="-16" rx=".8" ry=".8" transform="matrix(0,-1,-1,0,0,0)"/>
 <path style="fill:#ffffff" d="M 4.4003906 2 C 4.1787906 2 4 2.1787906 4 2.4003906 L 4 6 L 4 9.5996094 C 4 9.8212094 4.1787906 10 4.4003906 10 L 8 10 A 4 4 0 0 0 12 6 A 4 4 0 0 0 8 2 L 4.4003906 2 z M 6.2011719 4 L 8 4 A 2 2 0 0 1 10 6 A 2 2 0 0 1 8 8 L 6.2011719 8 C 6.0903719 8 6 7.9096281 6 7.7988281 L 6 6 L 6 4.2011719 C 6 4.0903719 6.0903719 4 6.2011719 4 z"/>
 <path style="fill:none;stroke:#f07400;stroke-width:0.99979132;stroke-linecap:round" d="M 2.9964854,14.492949 2.251727,13.375811 M 1.5069682,13.003432 c 0,0 1.4895172,0.172971 1.4895172,-0.744758 0,-0.917728 -1.4895172,-0.744758 -1.4895172,-0.744758 m 3.65e-5,2.979069 0,-2.979033"/>
 <path style="fill:none;stroke:#f07400;stroke-width:0.99979132;stroke-linecap:round;stroke-linejoin:bevel" d="m 4.5104838,13.344555 1.4895162,0 m -1.489479,1.117136 0,-2.234274 M 6,14.461691 6,12.227417 m -1.4895162,0 c 0,0 0,-0.744759 0.7447581,-0.744759 C 6,11.482658 6,12.227417 6,12.227417"/>
 <path style="fill:none;stroke:#f07400;stroke-width:0.99979132;stroke-linecap:round;stroke-linejoin:round" d="m 7.5104842,11.519934 0,2.979034 1.4895158,0 0,0"/>
 <path style="fill:none;stroke:#f07400;stroke-width:0.99979132;stroke-linecap:round;stroke-linejoin:round" d="m 10.510484,11.56795 0,2.979034 1.489516,0 0,0"/>
 <path style="fill:none;stroke:#f07400;stroke-width:0.99979132;stroke-linecap:round" d="m 13.487836,14.489517 0,-1.489517 M 14.604973,11.510484 13.487836,13 M 12.370699,11.510484 13.487836,13"/>
</svg>
